svgs/sharp-regular/chess-clock-flip.svg

<svg xmlns="http://www.w3.org/2000/svg" viewBox="0 0 640 512"><!--! Font Awesome Pro 6.6.0 by @fontawesome - https://fontawesome.com License - https://fontawesome.com/license (Commercial License) Copyright 2024 Fonticons, Inc. --><path d="M384 32l160 0 0 48-56 0 0 32 104 0 48 0 0 48 0 272 0 48-48 0L48 480 0 480l0-48L0 160l0-48 48 0 48 0 0-32 160 0 0 32 184 0 0-32-56 0 0-48zM48 160l0 272 544 0 0-272L48 160zm392 32a104 104 0 1 1 0 208 104 104 0 1 1 0-208zm16 48l0-16-32 0 0 16 0 48 0 16 32 0 0-16 0-48zM126.5 222.5A104 104 0 1 1 273.5 369.5 104 104 0 1 1 126.5 222.5zm135.8 33.9l-22.6-22.6-11.3 11.3L194.3 279 183 290.3 205.7 313 217 301.7l33.9-33.9 11.3-11.3z"/></svg>

<svg xmlns="http://www.w3.org/2000/svg" viewBox="0 0 640 512"><!--! Font Awesome Pro 6.4.2 by @fontawesome - https://fontawesome.com License - https://fontawesome.com/license (Commercial License) Copyright 2023 Fonticons, Inc. --><path d="M384 32H544V80H488v32H592h48v48V432v48H592 48 0V432 160 112H48 96V80H256v32H440V80H384V32zM48 160V432H592V160H48zm392 32a104 104 0 1 1 0 208 104 104 0 1 1 0-208zm16 48V224H424v16 48 16h32V288 240zM126.5 222.5A104 104 0 1 1 273.5 369.5 104 104 0 1 1 126.5 222.5zm135.8 33.9l-22.6-22.6-11.3 11.3L194.3 279 183 290.3 205.7 313 217 301.7l33.9-33.9 11.3-11.3z"/></svg>
